**kern
*clefF4
*k[]
*M9/4
=1
1E 1G 1c
4E 4A 4c
1E 1G#X 1B
=2
1E 1G 1c
4E 4G 4B
1D#X 1F#X 1B
=3
1E 1G 1c
4F 4A 4c
1F 1B-X 1d-X
=4
1E 1G 1c
4D 4G 4B
1E-X 1G 1c
=5
1F 1A-X 1c
4E-X 4A-X 4c
1F-X 1A-X 1d-X
!!linebreak:original
=6
1F 1A-X 1c
4F 4A-X 4d-X
1G-X 1B-- 1d-X
=7
1F 1A-X 1c
4E-X 4G 4c
1D 1G 1B
=8
1F 1A-X 1c
4F 4B-X 4d-X
1F 1An 1c
==
*-
!!!system-decoration: [(s1
